!!!SOCIAL_FUNCTION:	bird dance songs
!!!PDT:	1956
!!!OTL: No_146_Fox_Dance_Song_(a).krn
!!!LANG: Non-Tone
!!!LING_GROUP: Muskogean
!!!REG: Florida
**kern
*staff1
=1-
*clefF4
*k[f#]
*M3/4
2r
8D\L
16G\L
16G\JJ
=2!|:
8.G\L
16D\Jk
(4G\
8D\L)
8D\J
=3||
*M2/4
4D\
8D\
8r
=4
8BB\L
16D\L
16D\JJ
8D\L
8D\J
=5||
*M3/4
8E\L
16D\L
16D\JJ
4D\
8D\
8r
=6
8G\L
8A\J
4G\
(4F#\
=7
8D\L)
16D\L
16D\JJ
4D\
4D\
=8||
*M2/4
8BB\L
16D\L
16D\JJ
8D\L
8D\J
=9||
*M3/4
8E\L
16D\L
16D\JJ
4D\
8D\
8r
=10
*M2/4
4r
8D\L
16G\L
16G\JJ
==:|!
*-
